X: 382
T: Bonny Charley
%R: reel
Z: 2014 John Chambers <jc:trillian.mit.edu>
B: Preston "Twenty four Country Dances for the Year 1800" p.171 #2
F: http://www.vwml.org/browse/browse-collections-dance-tune-books/browse-prestons1800# 2014-8-10
M: 2/4
L: 1/8
K: D
d/e/ |\
fdcA | Bd AF | GEGB | e>fge |\
fdcA | Bd AG | FDFA | d3 :|
d |\
cAAf | eAAd | cAAc | d2cB |\
cAAf | ecac | Beed | c2A2 |
d>edA | BAGF | Eeef | g2fe |\
d>edF | BAFD | FA de | f2d |]
% - - - - - - - - - - - - - - - - - - - - - - - - -
%%begintext align
%% 1st Lady Hey with Part.r & 2d Gent: .|
%% 1st Gent: Hey with his Part.r & 2d Lady :|
%% Cross over turn your Part.r and hands 4
%% at bottom :|:
%%endtext
% - - - - - - - - - - - - - - - - - - - - - - - - -

%%sep 1 1 500
%%sep 1 1 500
